X: 1
T: Blacksmith's Waltz
T: Smed-Jens Vals
N: Scandinavian
R: waltz
O: "As taught by Natalie Haas"
S: printed page in Concord Slow Scottish Session collection
Z: 2015 John Chambers <jc:trillian.mit.edu>
M: 3/4
L: 1/8
K: G
A2 |:\
B3  c d2 | G3 A B2 | A2 G2 A2 | B2 BA GF |\
E2 C2 E2 | B,3 C D2 | D2 A,2 C2 | B,3 A, G,2 |
B3  c d2 | G3 A B2 | A2 G2 A2 | B2 BA GF |\
E2 C2 E2 | B,3 C D2 | D3 F AF |1 G4 D2 :|G4 B,C ||
D2 B,3 C | D2 BA GF | E2 C2 D2 | E2 AG FE |\
D2 A,3 B, | D2 A,2 C2 | B,3 C B,A, | G,2 G,A, B,C |
D2 B,3 C | D2 BA GF | E2 C2 D2 | E2 AG FE |\
D3 E D2 | D2 E2 F2 | G2 GA GF | G3 D B,C |
D2 A,3 B, | D2 BA GF | E2 C2 D2 | E2 AG FE |\
D2 A,3 B, | D2 A,2 C2 | B,3 C B,A, | G,2 G,A, B,C |
D2 A,3 B, | D2 BA GF | E2 C2 D2 | E4 G2 |\
F2 D2 E2 | F2 G2 A2 | G2 GA GF | G4 |]
